app/images/src/svg/phone.svg

<svg width="18" height="18" viewBox="0 0 18 18" fill="none" xmlns="http://www.w3.org/2000/svg">
<path d="M17.5965 14.2371L14.8167 11.4507C14.263 10.898 13.346 10.9148 12.7731 11.4893L11.3726 12.8926C11.2841 12.8437 11.1925 12.7927 11.0962 12.7385C10.2118 12.2474 9.0014 11.5742 7.72766 10.2967C6.45015 9.01641 5.77788 7.80136 5.28635 6.91439C5.23449 6.82043 5.18479 6.72983 5.13572 6.64379L6.07565 5.70313L6.53775 5.23941C7.11161 4.66409 7.12743 3.74536 6.57504 3.19103L3.79522 0.404295C3.24282 -0.149249 2.32549 -0.132456 1.75163 0.442856L0.968184 1.23259L0.989593 1.25389C0.726892 1.58985 0.507372 1.97733 0.344011 2.39519C0.193424 2.79293 0.0996685 3.17248 0.0567986 3.55281C-0.310259 6.60269 1.0803 9.39005 4.85409 13.1724C10.0706 18.4004 14.2744 18.0055 14.4558 17.9862C14.8508 17.9389 15.2293 17.8443 15.614 17.6946C16.0273 17.5327 16.4136 17.313 16.7486 17.0503L16.7658 17.0655L17.5594 16.2866C18.1321 15.7114 18.1486 14.7923 17.5965 14.2371Z" fill="#FF9701"/>
</svg>

<svg width="18" height="18" fill="none" xmlns="http://www.w3.org/2000/svg"><path d="m17.596 14.237-2.78-2.786c-.553-.553-1.47-.536-2.043.038l-1.4 1.404-.277-.155c-.884-.49-2.095-1.164-3.368-2.441C6.45 9.017 5.778 7.8 5.286 6.914c-.052-.094-.101-.184-.15-.27l.94-.94.462-.465c.574-.575.59-1.494.037-2.048L3.795.404c-.552-.553-1.47-.536-2.043.039l-.784.79.022.02a4.543 4.543 0 0 0-.646 1.142 4.74 4.74 0 0 0-.287 1.158c-.367 3.05 1.023 5.837 4.797 9.62 5.217 5.227 9.42 4.833 9.602 4.813a4.689 4.689 0 0 0 1.158-.291 4.52 4.52 0 0 0 1.135-.645l.017.015.793-.778c.573-.576.59-1.495.037-2.05Z" fill="#FF9701"/></svg>
